X: 759
T: Air Tune, The
R: reel
M: 4/4
K: Dmajor
Af fe f2 ed|(3fga de f2 ed|Be ed fd ed|BA A2 ABBA|
Af fe f2 ed|(3fga de f2 ed|dB Be dB cd[1 f2 ed d3 B|2 f2 ed de fg||
a2 ga fg ef|ed cd BA A2|Be ed fd ed|BA A2 ABBA|
a2 ga fg ef|ed cd BA A2|AB BA d2 BA[1 Af fe de fg|2 Af fe d3 B||

